lib/flags/m/748.svg

<svg xmlns="http://www.w3.org/2000/svg" fill="none" viewBox="0 0 20 15"><mask id="748_svg__a" width="20" height="15" x="0" y="0" mask-type="alpha" maskUnits="userSpaceOnUse"><path fill="#fff" d="M0 0H20V15H0z"/></mask><g mask="url(#748_svg__a)"><path fill="#3D58DB" fill-rule="evenodd" d="M0 0H20V15H0V0Z" clip-rule="evenodd"/><path fill="#C51918" stroke="#FFD018" stroke-width="1.25" d="M0 3.125H-0.625V3.75V11.25V11.875H0H20H20.625V11.25V3.75V3.125H20H0Z"/><path fill="#FFD018" d="M4.46833 5.83189C4.39336 5.83189 4.33258 5.66239 4.33258 5.4533C4.33258 5.24421 4.39336 5.07471 4.46833 5.07471H15.3501C15.425 5.07471 15.4858 5.24421 15.4858 5.4533C15.4858 5.66239 15.425 5.83189 15.3501 5.83189H4.46833Z"/><path fill="#F7FCFF" fill-rule="evenodd" d="M15.0595 5.37643L15.6914 4.57031L16.8095 5.37643L15.6914 6.20375L15.0595 5.37643Z" clip-rule="evenodd"/><path fill="#FFD018" d="M4.46833 8.33189C4.39336 8.33189 4.33258 8.16239 4.33258 7.9533C4.33258 7.74421 4.39336 7.57471 4.46833 7.57471H15.3501C15.425 7.57471 15.4858 7.74421 15.4858 7.9533C15.4858 8.16239 15.425 8.33189 15.3501 8.33189H4.46833Z"/><path fill="#F7FCFF" fill-rule="evenodd" d="M15.0595 7.87643L15.6914 7.07031L16.8095 7.87643L15.6914 8.70375L15.0595 7.87643Z" clip-rule="evenodd"/><path fill="#FFD018" d="M2.71594 9.88854C2.61542 9.88854 2.53394 9.69608 2.53394 9.45867C2.53394 9.22127 2.61542 9.02881 2.71594 9.02881H17.3061C17.4066 9.02881 17.4881 9.22127 17.4881 9.45867C17.4881 9.69608 17.4066 9.88854 17.3061 9.88854H2.71594Z"/><path fill="#F7FCFF" fill-rule="evenodd" d="M5.5108 7.53292C5.5108 7.53292 7.28664 3.79541 9.82659 3.79541C12.3665 3.79541 14.2021 7.53292 14.2021 7.53292C14.2021 7.53292 11.9608 11.2213 9.85645 11.2213C7.75215 11.2213 5.5108 7.53292 5.5108 7.53292Z" clip-rule="evenodd"/><mask id="748_svg__b" width="10" height="9" x="5" y="3" mask-type="alpha" maskUnits="userSpaceOnUse"><path fill="#fff" fill-rule="evenodd" d="M5.5108 7.53292C5.5108 7.53292 7.28664 3.79541 9.82659 3.79541C12.3665 3.79541 14.2021 7.53292 14.2021 7.53292C14.2021 7.53292 11.9608 11.2213 9.85645 11.2213C7.75215 11.2213 5.5108 7.53292 5.5108 7.53292Z" clip-rule="evenodd"/></mask><g fill-rule="evenodd" clip-rule="evenodd" mask="url(#748_svg__b)"><path fill="#272727" d="M9.95269 3.55005C9.95269 3.55005 9.37315 4.25393 9.56633 4.92512C9.75951 5.59632 10.2096 5.52543 10.2096 6.11653C10.2096 6.70763 10.0017 7.31047 10.2096 7.31047C10.4175 7.31047 10.4896 7.71837 10.2995 7.99491C10.1095 8.27145 9.94143 8.27999 9.95269 8.73006C9.96395 9.18012 10.9477 9.62192 10.4711 9.62192C9.99459 9.62192 9.36649 10.0845 9.56633 10.0845C9.76617 10.0845 10.8117 10.4449 10.8117 10.9178C10.8117 11.3908 10.8117 11.7693 10.8117 11.7693H5.35706V3.55005H9.95269Z"/><path fill="#F7FCFF" d="M7.38685 6.2019H7.11536V7.30767H7.38685V6.2019ZM8.18775 6.2019H7.91626V7.30767H8.18775V6.2019ZM7.51581 6.2019H7.7873V7.30767H7.51581V6.2019ZM8.58821 6.2019H8.31671V7.30767H8.58821V6.2019ZM8.71717 6.2019H8.98866V7.30767H8.71717V6.2019ZM9.38911 6.2019H9.11762V7.30767H9.38911V6.2019ZM7.11536 7.78844H7.38685V8.89421H7.11536V7.78844ZM8.18775 7.78844H7.91626V8.89421H8.18775V7.78844ZM7.51581 7.78844H7.7873V8.89421H7.51581V7.78844ZM8.58821 7.78844H8.31671V8.89421H8.58821V7.78844ZM8.71717 7.78844H8.98866V8.89421H8.71717V7.78844ZM9.38911 7.78844H9.11762V8.89421H9.38911V7.78844Z"/><path fill="#272727" d="M10.6108 6.2019H10.3394V7.30767H10.6108V6.2019ZM11.4118 6.2019H11.1403V7.30767H11.4118V6.2019ZM10.7398 6.2019H11.0113V7.30767H10.7398V6.2019ZM11.8122 6.2019H11.5407V7.30767H11.8122V6.2019ZM11.9412 6.2019H12.2127V7.30767H11.9412V6.2019ZM12.6131 6.2019H12.3416V7.30767H12.6131V6.2019ZM10.3394 7.78844H10.6108V8.89421H10.3394V7.78844ZM11.4118 7.78844H11.1403V8.89421H11.4118V7.78844ZM10.7398 7.78844H11.0113V8.89421H10.7398V7.78844ZM11.8122 7.78844H11.5407V8.89421H11.8122V7.78844ZM11.9412 7.78844H12.2127V8.89421H11.9412V7.78844ZM12.6131 7.78844H12.3416V8.89421H12.6131V7.78844Z"/><path fill="#3D58DB" d="M8.26975 4.41966C7.88943 4.53748 7.7154 5.53487 7.75791 5.77595C7.80042 6.01703 7.92945 5.7457 7.92945 5.7457C7.92945 5.7457 8.1926 6.31764 8.21974 6.47151C8.24687 6.62539 8.38545 6.23891 8.38545 6.23891C8.38545 6.23891 8.8419 6.55336 8.90368 6.90375C8.96546 7.25413 9.05839 6.5028 9.05839 6.5028L9.16179 6.48456L9.09637 6.11356L9.29355 6.28217L9.23272 5.93715C9.23272 5.93715 9.38122 6.13122 9.34355 5.91761C9.30589 5.70399 9.28486 5.58473 9.28486 5.58473L9.23338 5.29276L9.42855 5.25835C9.42855 5.25835 8.65006 4.30183 8.26975 4.41966Z"/></g><path fill="#3D58DB" fill-rule="evenodd" d="M16.3052 8.55983C15.9102 8.60983 15.5656 9.56184 15.5656 9.80664 15.5656 10.0514 15.7398 9.80664 15.7398 9.80664 15.7398 9.80664 15.8996 10.4156 15.8996 10.5718 15.8996 10.7281 16.1032 10.3715 16.1032 10.3715 16.1032 10.3715 16.4981 10.7605 16.4981 11.1163 16.4981 11.4721 16.7201 10.7483 16.7201 10.7483H16.8251V10.3715L16.99 10.5718V10.2215C16.99 10.2215 17.1026 10.4384 17.1026 10.2215 17.1026 10.0046 17.1026 9.88349 17.1026 9.88349V9.58701H17.3008C17.3008 9.58701 16.7002 8.50984 16.3052 8.55983zM3.49559 8.41555C3.89058 8.46555 4.23517 9.41756 4.23517 9.66236 4.23517 9.90715 4.06098 9.66236 4.06098 9.66236 4.06098 9.66236 3.90114 10.2713 3.90114 10.4275 3.90114 10.5838 3.69755 10.2273 3.69755 10.2273 3.69755 10.2273 3.30264 10.6162 3.30264 10.972 3.30264 11.3278 3.08066 10.604 3.08066 10.604H2.97567V10.2273L2.81076 10.4275V10.0772C2.81076 10.0772 2.69821 10.2941 2.69821 10.0772 2.69821 9.8603 2.69821 9.7392 2.69821 9.7392V9.44272H2.50002C2.50002 9.44272 3.10059 8.36555 3.49559 8.41555z" clip-rule="evenodd"/></g></svg>

<svg xmlns="http://www.w3.org/2000/svg" fill="none" viewBox="0 0 20 15"><mask id="748_svg__a" width="20" height="15" x="0" y="0" maskUnits="userSpaceOnUse"><path fill="#fff" d="M0 0h20v15H0z"/></mask><g mask="url(#748_svg__a)"><path fill="#3D58DB" fill-rule="evenodd" d="M0 0h20v15H0V0z" clip-rule="evenodd"/><path fill="#C51918" stroke="#FFD018" stroke-width="1.25" d="M0 3.125h-.625v8.75h21.25v-8.75H0z"/><path fill="#FFD018" d="M4.468 5.832c-.075 0-.135-.17-.135-.379s.06-.378.135-.378H15.35c.075 0 .136.17.136.378 0 .21-.061.379-.136.379H4.468z"/><path fill="#F7FCFF" fill-rule="evenodd" d="M15.06 5.376l.631-.806 1.118.806-1.118.828-.632-.828z" clip-rule="evenodd"/><path fill="#FFD018" d="M4.468 8.332c-.075 0-.135-.17-.135-.379s.06-.378.135-.378H15.35c.075 0 .136.17.136.378 0 .21-.061.379-.136.379H4.468z"/><path fill="#F7FCFF" fill-rule="evenodd" d="M15.06 7.876l.631-.806 1.118.806-1.118.828-.632-.828z" clip-rule="evenodd"/><path fill="#FFD018" d="M2.716 9.889c-.1 0-.182-.193-.182-.43 0-.238.081-.43.182-.43h14.59c.1 0 .182.192.182.43 0 .237-.081.43-.182.43H2.716z"/><path fill="#F7FCFF" fill-rule="evenodd" d="M5.51 7.533s1.777-3.738 4.317-3.738 4.375 3.738 4.375 3.738-2.241 3.688-4.346 3.688c-2.104 0-4.345-3.688-4.345-3.688z" clip-rule="evenodd"/><mask id="748_svg__b" width="10" height="9" x="5" y="3" maskUnits="userSpaceOnUse"><path fill="#fff" fill-rule="evenodd" d="M5.51 7.533s1.777-3.738 4.317-3.738 4.375 3.738 4.375 3.738-2.241 3.688-4.346 3.688c-2.104 0-4.345-3.688-4.345-3.688z" clip-rule="evenodd"/></mask><g fill-rule="evenodd" clip-rule="evenodd" mask="url(#748_svg__b)"><path fill="#272727" d="M9.953 3.55s-.58.704-.387 1.375c.193.671.644.6.644 1.192 0 .59-.208 1.194 0 1.194.207 0 .28.407.09.684-.19.277-.359.285-.347.735.01.45.995.892.518.892-.476 0-1.105.463-.905.463.2 0 1.246.36 1.246.833v.851H5.357V3.55h4.596z"/><path fill="#F7FCFF" d="M7.387 6.202h-.272v1.106h.272V6.202zm.8 0h-.27v1.106h.27V6.202zm-.671 0h.271v1.106h-.271V6.202zm1.072 0h-.271v1.106h.271V6.202zm.13 0h.27v1.106h-.27V6.202zm.671 0h-.271v1.106h.271V6.202zM7.115 7.789h.272v1.105h-.272V7.788zm1.073 0h-.272v1.105h.272V7.788zm-.672 0h.271v1.105h-.271V7.788zm1.072 0h-.271v1.105h.271V7.788zm.13 0h.27v1.105h-.27V7.788zm.671 0h-.271v1.105h.271V7.788z"/><path fill="#272727" d="M10.61 6.202h-.27v1.106h.27V6.202zm.802 0h-.272v1.106h.272V6.202zm-.672 0h.271v1.106h-.271V6.202zm1.072 0h-.271v1.106h.271V6.202zm.13 0h.27v1.106h-.27V6.202zm.671 0h-.271v1.106h.271V6.202zM10.34 7.789h.272v1.105h-.272V7.788zm1.073 0h-.272v1.105h.272V7.788zm-.672 0h.271v1.105h-.271V7.788zm1.072 0h-.271v1.105h.271V7.788zm.13 0h.27v1.105h-.27V7.788zm.671 0h-.271v1.105h.271V7.788z"/><path fill="#3D58DB" d="M8.27 4.42c-.38.118-.555 1.115-.512 1.356.042.241.171-.03.171-.03s.264.572.29.726c.028.154.166-.233.166-.233s.457.314.519.665c.061.35.154-.401.154-.401l.104-.018-.066-.371.198.168-.061-.345s.148.194.11-.02l-.058-.332-.052-.292.196-.035s-.779-.956-1.16-.838z"/></g><path fill="#3D58DB" fill-rule="evenodd" d="M16.305 8.56c-.395.05-.74 1.002-.74 1.247 0 .245.175 0 .175 0s.16.609.16.765c0 .156.203-.2.203-.2s.395.389.395.744c0 .356.222-.368.222-.368h.105v-.376l.165.2v-.35s.113.216.113 0v-.635h.198s-.6-1.077-.996-1.027zM3.496 8.416c.395.05.74 1.002.74 1.247 0 .244-.175 0-.175 0s-.16.608-.16.765c0 .156-.203-.2-.203-.2s-.395.388-.395.744-.222-.368-.222-.368h-.105v-.377l-.165.2v-.35s-.113.217-.113 0v-.634H2.5s.6-1.077.996-1.027z" clip-rule="evenodd"/></g></svg>
